!!!OTL: ES WAR EIN KOENIG VON THULE
!!!ARE: Europa, Mitteleuropa, Deutschland
!!!SCT: F0825
!!!YEM: Copyright 1995, estate of Helmut Schaffrath.
**kern
*ICvox
*Ivox
*M6/4
*k[]
*a:
{4e
=1
2a
4a
4.e
8e
4e
=2
2.fn
2cn}
{4cn
=3
2d
4e
2fn
4d
=4
1e
4r}
{4e
=5
2a
4a
4.gn
8gn
4gn
=6
2.cn
2d}
{8d
8d
=7
2e
4fn
2d
4e
=8
[2.A
[2.A]
=9
1A]
4r}
==
!!!AGN: erzaehlendes Volks - Lied, Ballade
!!!ONB: ESAC (Essen Associative Code) Database: FINK
!!!AMT: compound duple
!!!AIN: vox
!!!EED: Helmut Schaffrath
!!!EEV: 1.0
*-
